X: 1361
T: The Money Musk
R:Reel
N:Irish Style
N:Collected by Cronin
B:O'Neill's  1361
Z:Transcribed by Trish O'Neil
Z:Corrected by John Chambers
M:C|
L:1/8
K:A
af|e>c (3ccc fcdf|edcA BEGB|edcB Aaga|befg agaf|
edca fcdf|edcA BEGB|edcB Aaga|fdBd cAA||
e|agae cefg|agba gaef|agae cdeg|fdBd cAAe|
(ag)(gf) (fe)(ec)|dfec dcBA|GABd cefa|gbega2|]


